X:1
T:Dominus Deus vester
T:Dominus Deus vester
T:Christiaan Hollander
C:Christiaan Hollander
%%score [ 1 [ 2 3 ] 4 ]
L:1/8
Q:1/4=120
M:2/2
K:F
V:1 treble nm="Soprano" snm="S"
V:2 treble-8 nm="Tenor 1" snm="T 1"
V:3 treble-8 nm="Tenor 2" snm="T 2"
V:4 bass nm="Bass" snm="B"
V:1
 z4 A4- | A2 A2 A4 | G2 G2 B4 | A3 G A2 B2 | A3 B cG c2- | cBAG A2 d2- | d2 d2 A2 A2 | %7
w: Do-|* mi- nus|De- us ve-|ster, Do- mi- nus|De- us ve- * *|* * * * ster, Do-|* mi- nus De-|
 c3 B/A/ G2 G2 | F2 A3 A A2- | A2 c4 c2 | B2 G2 A4 | z2 A4 A2 | A4 c4 | B6 G2 | A4 z2 A2- | %15
w: * * * us ve-|ster, Do- mi- nus|_ De- us|ve- * ster,|Do- mi-|nus De-|us ve-|ster, i-|
 A2 A2 c2 G2 | B2 A2 G4 | F2 A4 A2 | c2 c2 A2 d2 | B2 AG A4 | z2 A4 G2- | G2 F2 G4 | F2 A4 A2 | %23
w: * pse est De-|us De- o-|rum, i- pse|est De- us De-|o- * * rum,|De- us|_ De- o-|rum, i- pse|
 G2 G2 A2 A2 | B4 A2 c2- | c2 A2 BG B2- | BA A4 G2 | A4 A3 A | A2 B4 AG | F2 F2 G3 G | %30
w: est De- us De-|o- rum, De-|* us De- * o-||rum, De- us|De- o- * *|rum et Do- mi-|
 G2 A2 A2 G2 | F2 A2 B3 B | B2 A2 B2 G2 | A4 z2 A2 | A3 A B2 A2 | F2 G2 A3 G | AB c3 A d2- | %37
w: nus Do- mi- no-|rum, et Do- mi-|nus Do- mi- no-|rum, et|Do- mi- nus Do-|mi- no- rum, Do-|mi- * no- * *|
"^#" d2 c2 d2 A2 | A2 G2 A2 d2- | d2 c2 B4 | A2 A2 B2 G2 | A2 d4 c2 | B2 A3 G G2- | G2 F2 G2 B2 | %44
w: * * rum, De-|us ma- gnus, De-|* us ma-|gnus, De- us ma-|gnus, De- us|ma- * * *|* * gnus, for-|
 A2 F2 A3 A | G2 B4 AG | F2 d2 c2 A2 | c3 c B4 | A4 z2 B2- | B2 B2 B4 | A3 G F2 G2 | A2 A2 A2 B2 | %52
w: tis et me- tu-|en- * * *|dus, for- tis et|me- tu- en-|dus, for-|* is et|me- tu- en- *|dus, qui per- so-|
 A2 A2 F2 G2 | F2 d2 d2 c2 | B2 A2 B2 AG | A8 | z2 G2 c4- | c2 B2 A4- | A2 A2 B2 B2- | %59
w: nam, qui per- so-|nam non re- spi-|cit, non re- spi- *|cit,|non re-|* spi- cit,|_ ne- que ac-|
 BB A2 B2 G2 | d4 z2 G2 | d2 d3 d c2 | B2 AG F2 G2- | GFED E4 | DEFG ABcA | Bc d4 c2 | d4 z2 G2 | %67
w: * ci- pit mu- *|nus, ne-|que ac- ci- pit|mu- * * * *||||nus, ne-|
 d2 d3 d c2 | B2 A2 G2 G2 | B2 A3 A G2- | G2 F2 G4- | G8- | G8- | G8 ||"^SECUNDA PARS" A6 A2 | %75
w: que ac- ci- pit|mu- * nus, ne-|que ac- ci- pit|_ mu- nus.|_|||I- pse|
 G2 D2 A2 A2 | B2 A2 c2 B2- | B2 A2 A4 | z2 A2 B2 A2 | A3 G FD A2- | AG G4 F2 | G2 B4 A2 | %82
w: ius di- cet pu-|pil- lo et vi-|* du- ae,|i- pse ius|di- * cet _ pu-|* * pil- *|lo et vi-|
 AG G4 F2 | G2 B4 B2 | A4 A4 | z4 z2 d2- | d2 d2 c4 | A2 B4 A2 | G4 F2 A2- | AGAB c2 G2 | %90
w: * * * du-|ae at- que|a- mat,|at-|* qu a-|mat per- e-|gri- * *||
 A2 G2 z2 d2- | d2 c2 d2 B2- | Bc d2 c2 A2 | B2 d3 c A2 | B2 c2 A2 F2- | FGAB c2 G2 | c2 B3 A G2- | %97
w: * num, at-|* que a- mat|_ _ _ per- e-|gri- num, _ _|per- e- gri- num,|_ _ _ _ _ per-|e- gri- * *|
 G2 F2 G2 B2 | A2 G2 A4 | z2 A2 A2 G2 | F2 d3 c B2 | A2 G2 A4- | A8 | z4 d4 | d2 d4 c2 | %105
w: * * num ut|det il- lis,|ut det il-|lis, [ut _ _|det il- lis,]|_|vi-|ctum et ve-|
 B2 A2 B2 B2- | B2 B2 B2 A2 | GABc d4 | c2 B2 A4- | A2 F3 G A2- | AD G4 F2 | GABc d4- | d4 z2 A2- | %113
w: sti- tum, vi- ctum|_ et ve- sti-|||||tum, _ _ _ _|_ vi-|
 A2 A2 A2 B2 | c3 B A2 G2- |"^#" G2 F2 G4- | G8- | G8- | G8 |] %119
w: * ctum et ve-|sti- * * *|* * tum.|_|||
V:2
 d6 d2 | d4 c2 c2 | _e4 d2 g2- | g2 fe f2 g2- | g2 f2 g2 a2- | ag g4 fe | f2 f4 f2 | _e3 e e2 c2 | %8
w: Do- mi-|nus De- us|ve- ster, De|_ _ _ us ve-|* * ster, De-|* * us ve- *|ster, Do- mi-|nus De- us ve-|
 d2 f4 ed | e2 e3 e e2 | d2 d2 f4 | e4 f2 ed | e2 f2 cdef | g4 f2 d2 | e4 f2 f2- | f2 f2 _e2 e2 | %16
w: ster, ve- * *|ster, Do- mi- nus|De- us ve-|ster, Do- * *|* mi- nus _ _ _|_ De- us|ve- ster, i-|* pse est De-|
 d2 d2 B2 c2 | d2 f4 f2 | e2 e2 f2 a2- | ag g4 fe | f2 f4 _e2- | ed d4 c2 | d4 z2 f2 | %23
w: us De- o- *|rum, i- pse|est De- us De-|* * o- * *|rum, De- us|_ De- o- *|rum, De-|
 d2 g3 f f2- | f2 e2 f4 | edef g4 | c4 d4 | e4 fd f2- | fe d4 c2 | d2 d2 d3 d | d2 f2 f2 c2 | %31
w: us De- * o-|* * rum,|De- * * * *|o- rum|_ De- * o-||rum et Do- mi-|nus Do- mi- no-|
 d2 f2 g3 g | f2 f2 e2 d2 | e2 e2 f3 f | f6 e2 | c2 d2 f2 A2 | F2 G2 A2 G2 | A8 | z2 g4 f2 | %39
w: rum, et Do- mi-|nus Do- mi- no-|rum, et Do- mi-|nus Do-|mi- no- rum, Do-|mi- no- * *|rum,|De- us|
 e4 d2 g2 | f2 e2 d2 d2- | de f2 B2 g2- | g2 f2 e4 | d4 z2 d2 | f3 f f2 c2 | _e3 d/c/ B2 c2 | %46
w: ma- gnus, De-|* * us ma-|* * * gnus, De-|* us ma-|gnus, for-|tis, me- tu- en-|* * * dus, for-|
 d2 f2 f2 f2 | _e3 e d2 g2- |"^#" g2 f2 g2 d2- | d2 d2 d4 | f4 z2 d2 | d2 f3 edc | d2 d2 d2 c2 | %53
w: tis et me- tu-|en- dus, for- *|* tis et me-|* tu- en-|dus, qui|per- so- * * *|nam, qui per- so-|
 d2 f2 f2 _e2 | d2 f3 d g2- | g2 f2 f2 ed | e2 d2 e2 a2- | a2 gf e2 e2 |"^#" f g2 f g4 | %59
w: nam non re- spi-|cit, qui per- so-|* nam non re- *|* spi- cit, [non|_ re- * * spi-|* * * cit,]|
 z2 d2 g2 g2- | gg f2 _e2 d2 | z2 d2 g2 g2- | gg fe d2 e2- |"^#" ed d4 c2 | d3 e f2 e2 | %65
w: ne- que ac-|* ci- pit mu- nus,|ne- que ac-|* ci- pit _ mu- *||nus, _ _ _|
 d2 G2 A2 e2 |"^#" f g2 f g4 | d4 B2 c2 | d4 z2 d2 | g2 dd _e2 c2 | d6 d2 | _e2 e3 e d2 | %72
w: _ ne- que ac-|ci- * * pit|mu- * *|nus, ne-|que ac- ci- pit mu-|nus, ne-|que ac- ci- pit|
 d2 c4 BA |"^-natural" B8 || z8 | z4 d4- | d2 d2 c2 G2 | d2 d2 f2 e2- | e2 f2 g2 f2 | f4 d2 f2 | %80
w: mu- * * *|nus.||I-|* pse ius di-|cet pu- pil- lo|_ et vi- du-|ae, i- pse|
 _e2 d2 d3 c | BG g4 f2 | fe c2 d2 d2- | d2 d2 g2 d2 | f2 c2 f3 e | d2 c2 B2 A2- | A2 G2 A4- | %87
w: ius di- cet pu-|pil- lo et vi-|du- * * ae at-|* que a- mat|per- e- gri- *||* * num,|
 A2 f4 f2 | d4 d2 f2- | f2 f2 e4 | c2 d3 cde | fefg a2 g2 | z2 g4 f2 | g2 d3 e f2 | e4 d2 d2 | %95
w: _ per- e-|gri- num, at-|* que a-|mat per- * * *|e- * * * gri- num,|at- que|a- mat _ _|per- e- gri-|
 defd e4 | c2 f4 _e2 | d4 z2 g2 | f2 ed e4 | f2 f2 f2 e2 | d4 z2 g2 | f2 ed e4 | f2 f4 f2 | %103
w: num, _ _ _ per-|e- gri- *|num, ut|det _ _ il-|lis, ut det il-|lis, ut|det _ _ il-|lis, vi- ctum|
"^#" f2 g4 f2 | g2 de fd g2- | g2 f2 g2 d2- | d2 d2 d2 f2 | d2 g4 f2 | a2 gf e4 | d6 f2- | %110
w: et ve- sti-|tum, ve- * * * *|* sti- tum, vi-|* cum et ve-|sti _ _|tum, ve- * si-|tum, et|
 f2 _e2 d4 | B2 d3 e f2 | dcde f2 f2- | f2 f2 f4 | _e4 e4 | d8 | B4 _e4 | e2 c4 BA | %118
w: _ ve- sti-|tum, ve- sti- *|* * * * tum, vi-|* ctum et|ve- sti-|tum,|ve- sti-||
"^-natural" B8 |] %119
w: tum.|
V:3
 z8 | z8 | z8 | d6 d2 | d4 c2 c2 | _e4 d3 c/B/ | A2 F3 F F2 | G4 G2 G2 | A2 A4 A2 | A4 G2 G2 | %10
w: |||Do- mi-|nus De- us|ve _ _ _|ster, Do- mi- nus|De- us ve-|ster, Do- mi-|nus De- us|
 B4 A2 d2- | d2 c2 d2 c2- | c2 FG ABcd | _ed e3 d d2- | d2 c2 d2 d2- | d2 d2 G2 G2 | F2 F2 B2 AG | %17
w: ve- ster, Do-|* mi- nus De-|* us _ _ _ _ _|_ _ _ _ ve-|* * ster, i-|* pse est De-|us De- o- * *|
 A2 d4 d2 | c2 c2 d2 d2 | _e4 d2 A2- | A2 A2 c2 c2 | A2 B4 AG | A3 B c2 d2 | B2 G2 z2 c2- | %24
w: rum, i- pse|est De- us De-|o- rum, De-|* us De- o-|||* rum, [De-|
 c2 B2 c2 FG | AB c4 B2 | c2 f3 e d2- |"^#" d2 c2 d4 | D4 G4 | A2 A2 B3 B | B2 A2 F2 G2 | %31
w: * us De- o- *||rum, De- us De-|* o- rum,]|De- o-|rum, et Do- mi-|nus Do- mi- no-|
 A2 d2 d3 d | d2 c2 BA d2- | d2 c2 d2 A2 | d3 d d2 c2 | A2 B2 A2 F2- | F2 E2 F2 ED | E4 D2 d2 | %38
w: rum, et Do- mi-|nus Do- mi- * no-|* * rum, et|Do- mi- nus Do-|mi- no- rum, Do-|* mi- no- * *|* rum, De-|
 c2 B2 A2 A2- | AB c2 G2 d2- | d2 c2 B4 | A2 D2 G3 A | BcdA c3 B | A4 G4 | z2 d2 c2 A2 | c2 BA G4 | %46
w: us ma- gnus, De-|* * * us ma-||gnus, De- us _|ma- * * * * *|* gnus,|for- tis et|me- * * *|
 A2 B2 A2 c2 | c2 GA Bc d2- | dc A2 B2 G2- | G2 G2 G4 | A2 A2 A2 B2 | A2 A2 F2 G2 | A3 G/A/ B2 G2 | %53
w: tu- en- dus, for-|tis et _ _ _ me-|* * * tu- en-|* dus, me-|tu- en- dus, qui|per- so- nam, qui|per- * * * so-|
 A2 A2 B2 G2 | F2 d2 d2 _e2 | d6 cB | c2 d4 c2 |"^#" fe d4 c2 | d4 z2 G2 | d2 d3 d c2 | %60
w: nam non re- spi-|cit, qui per- so-|nam _ _|_ non re-|* * * spi-|cit, ne-|que ac- ci- pit|
 B2 A2 B2 AG | A4 z2 G2 | d2 d3 d c2 | B4 A4- | A2 F4 G2- | GFED E4 | D2 A2 B2 AG | A2 D2 G2 G2- | %68
w: mu- * * * *|nus, ne-|que ac- ci- pit|mu- *||||nus, ne- que ac-|
 GG F2 B4 | G2 A2 B2 AG | A4 G4- | G8- | G8- | G8 || z8 | z8 | z8 | z4 A4- | A2 A2 G2 D2 | %79
w: * ci- pit mu-||* nus.|_||||||I-|* pse ius di-|
 A2 A2 B2 A2 | c2 B4 A2 | G4 d4 | cBAG A2 A2 | G4 B2 B2 | c4 d2 A2- | A2 G2 FE F2- | F2 ED E4 | %87
w: cet pu- pil- lo|et vi- du-|ae, et|vi- * * * * du-|ae at- que|a- mat per-|* e- gri- * *||
 D2 d4 c2 | B4 A2 d2- | d2 d2 c4 | A2 B4 B2 | A4 F2 G2- | GA B2 A4 | G3 A Bc d2- | d2 c2 d2 A2- | %95
w: num, per- e-|gri- num, at-|* qu a-|mat,- at- que|a- mat per-|* * * e-|gri- * * * *|* * num at-|
 A2 F2 G2 c2- | cA d3 d cB | AG A2 G2 d2 |"^#" c2 d4 c2 | d2 d2 c2 c2 | A4 B4 |"^#" c2 d4 c2 | %102
w: * que a- mat|_ _ per- e- gri- *|* * * num, ut|det il- *|lis, ut det il-|lis, ut|det il- *|
 d2 A4 A2 | F2 c2 B2 A2 | GABc d2 _e2 | d4 z2 B2- | B2 B2 G2 A2 | B4 A4 |"^#" z2 d4 c2 | %109
w: lis vi- ctum|et ve- sti- *||tum, vi-|* ctum et ve-|sti- tum,|vi- ctum|
 d2 A2 B2 AG | F2 c2 B2 A2 | G2 G4 F2 | B4 A2 A2- | A2 F2 F4 | G4 c3 B | A4 G4- | G8- | G8- | G8 |] %119
w: et ve- sti- * *||tum, et ve-|sti- tum, vi-|* ctum et|ve- sti- *|* tum.|_|||
V:4
 z8 | z8 | z8 | z8 | z8 | z4 D,4- | D,2 D,2 D,4 | C,2 C,2 _E,4 | D,4 A,,3 A,, | A,,4 C,4 | %10
w: |||||Do-|* mi- nus|De- us ve-|ster, Do- mi-|nus De-|
 G,,2 G,,2 D,E,F,G, | A,4 z2 A,2- | A,2 A,2 A,4 | G,2 G,2 B,4 | A,4 z2 D,2- | D,2 D,2 C,2 C,2 | %16
w: us ve- * * * *|ster, Do-|* mi- nus|De- us ve-|ster, i-|* pse est De-|
 D,2 D,2 _E,4 | D,8 | z8 | z4 D,4- | D,2 D,2 C,2 C,2 | D,2 D,2 _E,4 | D,E,F,G, A,2 F,2 | %23
w: us De- o-|rum||i-|* pse est Deus|De- o- *|* * * * rum, De-|
 G,2 B,2 A,2 G,F, | G,4 F,2 A,2- | A,2 A,2 G,2 G,2 | A,2 A,2 B,4 | A,4 D,3 E, | F,2 B,,2 _E,4 | %29
w: o- * * * *|* rum, i-|* pse est De-|us De- o-|rum, De- *|* * o-|
 D,2 D,2 G,3 G, | G,2 F,2 D,2 _E,2 | D,2 D,2 G,3 G, | B,2 F,2 G,2 B,2 | A,2 A,,2 D,3 D, | D,4 z4 | %35
w: rum, et Do- mi-|nus Do- mi- no-|rum, et Do- mi-|nus Do- mi- no-|rum, et Do- mi-|nus,|
 z2 G,,2 D,3 D, | D,2 C,2 A,,2 B,,2 | A,,4 z2 D,2 | F,2 G,2 D,4 | A,4 B,2 G,2 | A,4 z2 G,2- | %41
w: et Do- mi-|nus Do- mi- no-|rum, De-|us ma- gnus,|De- us Ma-|gnus, De-|
 G,2 F,2 _E,4 | D,4 C,4 | D,4 G,,2 G,2 | F,2 D,2 F,3 F, | _E,8 | D,2 B,,2 F,2 F,2 | C,2 C,2 G,4 | %48
w: * us ma-||* gnus, for-|tis et me- tu-|en-|dus, for- tis et|me- tu- en-|
 D,4 G,,4- | G,,2 G,,2 G,,4 | D,6 G,,2 | D,4 z4 | D,4 D,2 _E,2 | D,2 D,2 B,,2 C,2 | D,4 z4 | %55
w: dus, me-|* tu- en-||dus,|qui per- so-|nam non re- spi-|cit,|
 z4 A,4 | A,2 B,2 A,2 A,2 | F,2 G,2 A,2 z2 | z2 D,2 G,2 G,2- | G,G, F,2 _E,4 | %60
w: qui|per- so- nam non|re- spi- cit,|ne- que ac-|* ci- pit mu-|
"^#" D,2 D,2 G,2 G,2- | G,G, F,2 _E,4 | D,4 z4 | z4 A,,4 | D,2 D,3 D, C,2 | B,,4 A,,4 | %66
w: nus, ne- que ac-|* ci- pit mu-|nus,|ne-|que ac- ci- pit|mu- nus,|
 z2 D,2 G,2 G,2- | G,G, F,2 _E,4 | D,2 D,2 G,2 G,2- | G,G, F,2 _E,4 | D,4 z2 G,,2 | %71
w: ne- que ac-|* ci- pit mu-|nus, ne- que ac-|* ci- pit mu-|nus, ne-|
 C,2 C,3 C, B,,2 | C,4 G,,4- | G,,8 || z8 | z8 |"^#" z8 | z8 | z8 | D,6 D,2 | C,2 G,,2 D,2 D,2 | %81
w: que ac- ci- pit|mu- nus.|_||||||I- pse|ius d- cet pu-|
 _E,4 D,2 D,2 | F,2 E,2 D,4 | z2 G,4 G,2 | F,4 D,2 F,2- | F,2 E,2 D,3 C, | B,,4 A,,4 | D,4 F,4 | %88
w: pil- lo et|vi- du- ae,|at- que|a- mat per-|* e- gri- *|* num,|per- e-|
 G,4 D,4- | D,4 z4 | z2 G,4 G,2 | F,4 D,2 _E,2 | E,D, B,,2 C,2 D,2 | G,,2 B,3 A, F,2 | %94
w: gri- num,|_|at- que|a- mat per-|* e- gri- * *|num, per- e- gri-|
 G,2 A,2 D,2 D,2- | D,2 D,2 C,4 | A,,2 B,,4 C,2 | D,4 G,,2 G,2 | A,2 B,2 A,4 | D,4 F,2 C,2 | %100
w: * * num, at-|* que a-|mat per- e-|gri- num, ut|det il- lis,|ut det il-|
 D,4 G,4 | A,2 B,2 A,4 | z2 D,4 D,2 | D,2 C,2 D,4 | G,,4 z4 |"^#" z4 G,4 | G,2 G,4 F,2 | %107
w: lis, ut|det il- lis,|vi- ctum|et ve- sti-|tum,|vi-|ctum et v-|
 G,4 D,3 E, | F,2 G,2 A,4 | z2 D,4 D,2 | D,2 C,2 D,4 | G,,3 A,, B,,C, D,2 | G,,A,,B,,C, D,2 D,2- | %113
w: sti- * *|* * tum,|vi- ctum|et ve- sti-||* * * * tum, vi-|
 D,2 D,2 D,4 | C,8 | D,4 G,,4 | G,,4 C,4 | C,4 G,,4- | G,,8 |] %119
w: * ctum et|ve-|sti- tum,|et ve-|sti- tum.|_|

